Numix-GalliumOS/22/mimetypes/text-x-patch.svg

<?xml version="1.0" encoding="UTF-8" standalone="no"?>
<svg
   xmlns:dc="http://purl.org/dc/elements/1.1/"
   xmlns:cc="http://creativecommons.org/ns#"
   xmlns:rdf="http://www.w3.org/1999/02/22-rdf-syntax-ns#"
   xmlns:svg="http://www.w3.org/2000/svg"
   xmlns="http://www.w3.org/2000/svg"
   xmlns:sodipodi="http://sodipodi.sourceforge.net/DTD/sodipodi-0.dtd"
   xmlns:inkscape="http://www.inkscape.org/namespaces/inkscape"
   width="22"
   height="22"
   viewBox="0 0 22 22"
   id="svg2"
   version="1.1"
   inkscape:version="0.91 r13725"
   sodipodi:docname="text-x-patch.svg">
  <metadata
     id="metadata16">
    <rdf:RDF>
      <cc:Work
         rdf:about="">
        <dc:format>image/svg+xml</dc:format>
        <dc:type
           rdf:resource="http://purl.org/dc/dcmitype/StillImage" />
      </cc:Work>
    </rdf:RDF>
  </metadata>
  <defs
     id="defs14" />
  <sodipodi:namedview
     pagecolor="#ffffff"
     bordercolor="#666666"
     borderopacity="1"
     objecttolerance="10"
     gridtolerance="10"
     guidetolerance="10"
     inkscape:pageopacity="0"
     inkscape:pageshadow="2"
     inkscape:window-width="1280"
     inkscape:window-height="998"
     id="namedview12"
     showgrid="true"
     inkscape:zoom="20.85965"
     inkscape:cx="6.9012597"
     inkscape:cy="12.539609"
     inkscape:window-x="0"
     inkscape:window-y="0"
     inkscape:window-maximized="1"
     inkscape:current-layer="svg2">
    <inkscape:grid
       type="xygrid"
       id="grid3004"
       empspacing="5"
       visible="true"
       enabled="true"
       snapvisiblegridlinesonly="true" />
  </sodipodi:namedview>
  <path
     style="fill:#dda06a;fill-opacity:1"
     d="M 4,0 C 3.527343,0 3,0.527344 3,1 l 0,20 c 0,0.445312 0.554687,1 1,1 l 14,0 c 0.445313,0 0.992367,-0.554753 1,-1 L 19,6 13,0 z"
     id="path4"
     inkscape:connector-curvature="0"
     sodipodi:nodetypes="ssssssccs" />
  <path
     style="fill:#000000;fill-opacity:0.19599998"
     d="m 14,6 5,5 0,-5 z"
     id="path6"
     inkscape:connector-curvature="0"
     sodipodi:nodetypes="cccc" />
  <path
     style="fill:#f9ebdd;fill-opacity:1"
     d="M 10.533342,5.9037334 C 9.5506116,6.2237571 10.412655,7.7349871 9.0103968,8.4757862 7.4012484,9.3173329 6.6024208,7.1897585 5.6369317,8.7069145 4.6714428,10.229997 6.9702262,9.9929409 6.9012641,11.782709 c -0.063217,1.795696 -2.3390125,1.41048 -1.482716,2.992826 0.8505499,1.582346 1.7987976,-0.491891 3.3447291,0.450404 1.5401868,0.948223 0.068965,2.702434 1.8850028,2.75577 1.821787,0.05926 0.471251,-1.777914 2.074652,-2.619462 1.609149,-0.847474 2.407977,1.286025 3.373466,-0.237055 0.965489,-1.523081 -1.333294,-1.286025 -1.264333,-3.075795 0.06321,-1.789768 2.339013,-1.41048 1.482716,-2.9928256 C 15.464232,7.4801531 14.515984,9.5543873 12.970052,8.6061656 11.429866,7.6579439 12.901092,5.9096595 11.08505,5.8503959 c -0.229878,-0.00591 -0.408035,0.00591 -0.551708,0.053335 z m 0.02299,4.5573916 c 0.810321,-0.171865 1.609148,0.343731 1.781557,1.14972 0.172409,0.800062 -0.344817,1.588271 -1.160885,1.760136 C 10.366679,13.542846 9.5678529,13.033178 9.3954433,12.227189 9.2230339,11.4212 9.7402608,10.63299 10.556328,10.461125 z"
     id="path10"
     inkscape:connector-curvature="0" />
  <path
     style="fill:#ffffff;fill-opacity:0.39200003"
     d="m 13,0 6,6 -5,0 C 13.554688,6 13,5.445312 13,5 z"
     id="path8"
     inkscape:connector-curvature="0"
     sodipodi:nodetypes="ccssc" />
</svg>

<svg xmlns="http://www.w3.org/2000/svg" viewBox="0 0 22 22">
 <path d="m 4 0 c -0.473 0 -1 0.527 -1 1 l 0 20 c 0 0.445 0.555 1 1 1 l 14 0 c 0.445 0 0.992 -0.555 1 -1 l 0 -15 -6 -6 z" style="fill:#dda06a;fill-opacity:1"/>
 <path d="m 14 6 5 5 0 -5 z" style="fill:#000;fill-opacity:0.196"/>
 <path d="m 10.533 5.904 c -0.983 0.32 -0.121 1.831 -1.523 2.572 -1.609 0.842 -2.408 -1.286 -3.373 0.231 -0.965 1.523 1.333 1.286 1.264 3.076 c -0.063 1.796 -2.339 1.41 -1.483 2.993 0.851 1.582 1.799 -0.492 3.345 0.45 1.54 0.948 0.069 2.702 1.885 2.756 1.822 0.059 0.471 -1.778 2.075 -2.619 1.609 -0.847 2.408 1.286 3.373 -0.237 0.965 -1.523 -1.333 -1.286 -1.264 -3.076 0.063 -1.79 2.339 -1.41 1.483 -2.993 c -0.851 -1.576 -1.799 0.498 -3.345 -0.45 -1.54 -0.948 -0.069 -2.697 -1.885 -2.756 c -0.23 -0.006 -0.408 0.006 -0.552 0.053 z m 0.023 4.557 c 0.81 -0.172 1.609 0.344 1.782 1.15 0.172 0.8 -0.345 1.588 -1.161 1.76 c -0.81 0.172 -1.609 -0.338 -1.782 -1.144 -0.172 -0.806 0.345 -1.594 1.161 -1.766 z" style="fill:#f9ebdd;fill-opacity:1"/>
 <path d="m 13 0 6 6 -5 0 c -0.445 0 -1 -0.555 -1 -1 z" style="fill:#fff;fill-opacity:0.392"/>
</svg>
